X:1
T:Title
L:1/8
Q:1/4=100
M:6/8
K:Bb
V:1 treble nm="Grand Piano"
V:1
 DDD BBA | G2 D E3 | CCC A2 G | F6 | C3 A2 G | F2 E D3 | D3 ^F2 F | A6 | DDD BBA | G2 D E3 | %10
w: ????~????~???? * * * * *||||||||||
 C2 C A2 G | F6 | CCC AAG | F2 E D3 | DDD ^F2 D | G6 | GGA BBB | B2 B B3 | BB=B c2 B | c2 =B c3 | %20
w: ||||||||||
 AAB c3 | c2 c c3 | ccc dcB | A6 | GGA BBB | B2 B B3 | BB=B c2 B | c2 =B c3 | AAB c3 | c2 c c3 | %30
w: ||||||||||
 ccc ddc | d6 | DDD BBA | G2 D E3 | C2 C A2 G | F6 | CCC AAG | F2 E D3 | DDD ^F2 D | %39
w: |||||||||
[M:7/4] G6 z2 z2 z4 |] %40
w: |

